X: 161
T: Col. H. F. CAMPBELL
C: WHITE
R: Strathspey
B: Glen Collection p.16 #1
Z: 2011 John Chambers <jc:trillian.mit.edu>
N: The last bass note was an A; this is almost certainly a typo.
M: C
L: 1/8
V: 1 middle=B clef=treble
V: 2 middle=d clef=bass
%%score {1 | 2}
K: G
%
V: 1
|:\
G2d2 d>Bdg | egdg AFDF | G2d2 d>Bdg | egfa g2g2 :|
g>ab>a gddg | egdg AFDF | g>ab>a gddg | egfa g2g2 |
g>ab>a gddg | egdg AFDF | G2d2 d>Bdg | egfa g2g2 |]
%
V: 2
|:\
G2[b2g2] [d'2g2][b2g2] | [c'2g2][b2g2] [c'2d2][c'2d2] |\
G2[b2g2] [d'2g2][b2g2] | [c'2g2][c'2d2] [b2g2][b2g2] :|
G2[d'2g2] [b2g2][b2g2] | [c'2g2][b2g2] [c'2d2][c'2d2] |\
[b2g2][d'2g2] [b2g2][b2g2] | [c'2g2][c'2d2] [b2g2][b2g2] |
G2[d'2g2] [b2g2][b2g2] | [c'2g2][b2g2] [c'2d2][c'2d2] |\
[b2g2][b2g2] [d'2g2][b2g2] | [c'2g2][c'2d2] [b2g2][g2G2] |]
